X:364
T: Kitty of Coleraine
N: O'Farrell's Pocket Companion v.4 (Sky ed. p.157)
M: 6/8
L: 1/8
Q: 300
R: jig
K: D
A| Add dfa| e>fe/d/ dcA/A/| Add dfa| gec d2A/A/|
Add dfa| e>fd dcA| dfa dgb| A>Bc d2 :|
f/g/| afd ecA| afd ecA| aec Bdf| cdB A2 A/G/|
FAd dfa| e>fe/d/ dcA| dfa dgb| ABc d2 :|
